X: 58
M:4/4
L:1/8
K:G
g2 fg egdd|g2 fg fgaf|g2 fg egdd|g2 ed (3BAG FA|
g2 fg egdd|g2 fg fgaf|bgaf ge d2|eged (3BAG FA||

